src/lib/packages/icons/src/assets/filled/folder-search.svg

<svg width="24" height="24" viewBox="0 0 24 24" fill="none" xmlns="http://www.w3.org/2000/svg">
<path d="M13.1021 12.935C13.1021 14.13 12.1301 15.102 10.9351 15.102C9.74106 15.102 8.76904 14.13 8.76904 12.935C8.76904 11.74 9.74106 10.768 10.9351 10.768C12.1301 10.768 13.1021 11.74 13.1021 12.935ZM21 10V17C21 19 20 20 18 20H6C4 20 3 19 3 17V7C3 5 4 4 6 4H10L13 7H18C20 7 21 8 21 10ZM15.5491 16.488L13.999 14.938C14.377 14.361 14.6021 13.674 14.6021 12.935C14.6021 10.913 12.9571 9.26801 10.9351 9.26801C8.91406 9.26801 7.26904 10.913 7.26904 12.935C7.26904 14.957 8.91406 16.602 10.9351 16.602C11.6751 16.602 12.362 16.378 12.939 15.999L14.489 17.549C14.635 17.695 14.827 17.769 15.019 17.769C15.211 17.769 15.4031 17.696 15.5491 17.549C15.8421 17.256 15.8421 16.781 15.5491 16.488Z" fill="currentColor"/>
</svg>

<svg xmlns="http://www.w3.org/2000/svg" width="24" height="24" fill="none"><path fill="currentColor" d="M13.102 12.935a2.17 2.17 0 0 1-2.167 2.167 2.17 2.17 0 0 1-2.166-2.167 2.17 2.17 0 0 1 2.166-2.167 2.17 2.17 0 0 1 2.167 2.167ZM21 10v7c0 2-1 3-3 3H6c-2 0-3-1-3-3V7c0-2 1-3 3-3h4l3 3h5c2 0 3 1 3 3Zm-5.45 6.488-1.551-1.55a3.645 3.645 0 0 0 .603-2.003 3.671 3.671 0 0 0-3.667-3.667 3.67 3.67 0 0 0-3.666 3.667 3.671 3.671 0 0 0 3.666 3.667c.74 0 1.427-.224 2.004-.603l1.55 1.55a.748.748 0 0 0 1.06 0 .75.75 0 0 0 0-1.061Z"/></svg>
